X: 3
T: The Humours Of Glendart
R: jig
M: 6/8
L: 1/8
K: Dmaj
|:BAF ADD|FEF DFA|BAF ADD|FEE E2A|BAF ADD|FEF DFA|dcB AFE|FDD D2D:|def d2B|ABA AFD|def d2d|ede fdB|def d2B|dBA ABc|dcB AFE|FDD D2A:|


Tune 45	Setting 27221

